X: 1
T: the Master of the Dance (harmonized high)
T: a Tribute to Ted Sannella
C: David A. Kaynor August 1995
%D:1995
R: reel
S: April 2021 NEFFA handout
Z: 2021 John Chambers <jc:trillian.mit.edu>
M: 4/4
L: 1/8
K: D
% - - - - -
V: 1 staves=2
|: "D"D2DE F3E | DEFD "A"EA, (3.A,.A,.A, | "D"D2DE F2ED | "A"CEAB [1,3 AGFE :|[2,4 A4 :|
|: "A"Acec "D"Adfd | "A"ecAG "D"FADF | "Em"G2BG E3D | "A"CDEC [1,3 A,4 :|[2,4 "D"D4 :|
% - - - - -
V: 2
|: F2FG A3G | FGAF EC (3.C.C.C | F2FG A2GF | EAcd [1,3 cBAG :|[2,4 c4 :|
|: ceae dfaf | gecB AdFA | B2eB G3F | EFGE [1,3 C4 :|[2,4 F4 :|
% - - - - -
